packages/match-logos/mono/svg/lendingtree.svg

<svg fill="none" height="44" viewBox="0 0 184 44" width="184" xmlns="http://www.w3.org/2000/svg" xmlns:xlink="http://www.w3.org/1999/xlink"><clipPath id="a"><path d="m0 0h183.333v44h-183.333z"/></clipPath><g clip-path="url(#a)"><path d="m91.124 19.5433h-15.4v16.8227h5.412v-12.4667h7.3333c.1442-.0265.2926-.0187.4332.0229s.2693.1158.3758.2166c.1065.1007.1877.2252.237.3633s.0653.2858.0467.4312v11.4327h5.4413v-12.7747c.0074-4.4366-3.8793-4.048-3.8793-4.048zm-85.69733 11.0074v-13.816h-5.42667v16.522s.0660001 3.102 4.01867 3.102h3.982v-4.6494h-1.40067c-.15896.0278-.32227.0172-.4763-.0309-.15402-.0482-.2943-.1325-.40913-.2459-.11483-.1133-.20087-.2526-.25095-.406s-.06275-.3165-.03695-.4758zm56.81863-11.242h-9.5333c-3.3073 0-3.102 2.4933-3.102 2.4933v10.4647c-.0428.5342.028 1.0714.2076 1.5763s.4641.9661.8346 1.3533c.3706.3872.8189.6916 1.3154.8932.4966.2016 1.0302.2958 1.5657.2765h13.9334v-19.5873h-5.2214v2.5226zm0 12.6426h-5.9326c-.3353.0119-.6617-.1095-.9077-.3376-.246-.2282-.3916-.5445-.405-.8797v-7.1133h5.8667c.3266-.0102.6454.1012.8946.3125.2493.2113.4113.5076.4547.8315v7.1866zm6.7394-12.5033h5.2066v16.9107h-5.2066zm-24.8087.0953h-15.4587v16.8667h5.4267v-12.4667h7.3773c.1442-.0265.2926-.0187.4332.0229s.2693.1158.3758.2166c.1065.1007.1877.2252.237.3633s.0653.2858.0467.4312v11.418h5.4487v-12.7966c.0073-4.444-3.8867-4.0554-3.8867-4.0554zm-21.5453 6.688h-7.4507v3.5274h8.382c4.048 0 3.8353-2.97 3.8353-2.97v-3.058c0-4.2974-4.0993-4.2094-4.0993-4.2094h-10.01c-.55-.0145-1.097.086-1.606.295-.5089.2091-.9686.5221-1.3497.919-.38099.3969-.67497.869-.86307 1.386-.18809.5171-.26617 1.0677-.22923 1.6167v8.4407c-.03494.5509.0455 1.1031.23617 1.6213.19068.5181.48739.9907.87113 1.3876.3838.3968.8462.7093 1.3576.9172.5114.208 1.0606.307 1.6124.2905h13.6987v-4.5833h-11.7333c-.1506.0316-.3063.0293-.4558-.0069-.1496-.0362-.2891-.1052-.4086-.2022-.1194-.097-.2157-.2194-.2819-.3583-.0661-.1389-.1004-.2908-.1004-.4446v-5.6613c.0019-.1541.0373-.3058.1037-.4448s.1622-.262.2807-.3603c.1186-.0983.2571-.1697.406-.2093.1488-.0395.3045-.0462.4563-.0196h6.116c.1512-.0254.306-.0178.454.0223.148.04.2856.1116.4033.2098s.2128.2208.2787.3592c.066.1384.1012.2894.1033.4427v1.0926zm99.1763 4.8327v-7.634h3.021v-4.488h-3.146v-2.288h-5.669v15.3413c0 3.916 4.166 4.3267 4.166 4.3267h4.693v-4.6127h-2.075c-.108.0257-.22.0293-.329.0104-.108-.0189-.212-.0598-.305-.1201-.093-.0604-.172-.1391-.233-.2311-.062-.0921-.103-.1957-.123-.3045zm4.128-8.8807v14.146h5.508v-11.3153c-.028-.1555-.019-.3151.025-.4668.044-.1516.122-.2912.228-.408s.238-.2077.384-.2658c.147-.0581.305-.0819.463-.0694h4.876v-4.8767h-7.392c-.965-.0635-1.918.2349-2.675.8369-.757.6021-1.262 1.4646-1.417 2.4191zm26.334 3.652h-7.663v3.6227h8.617c4.15 0 3.945-3.0507 3.945-3.0507v-3.146c0-4.4-4.209-4.3266-4.209-4.3266h-10.267c-.565-.0146-1.127.089-1.65.304s-.995.5368-1.386.9447c-.392.4079-.693.893-.887 1.4243-.193.5312-.273 1.097-.235 1.661v8.6753c0 4.4 4.187 4.3267 4.187 4.3267h14.073v-4.7374h-12.1c-1.32 0-1.261-1.034-1.261-1.034v-5.786c.001-.1575.036-.3129.103-.4554.067-.1426.164-.2688.285-.37.121-.1011.262-.1748.414-.2159s.311-.0486.466-.022h6.285c.156-.0265.315-.019.468.0221.152.041.294.1146.415.2157.121.101.219.2271.287.3696.068.1426.104.2981.106.4559v1.122zm19.778 0h-7.656v3.6227h8.617c4.158 0 3.938-3.0507 3.938-3.0507v-3.146c0-4.4-4.209-4.3266-4.209-4.3266h-10.267c-.564-.0135-1.126.0908-1.648.3063-.521.2154-.993.5374-1.383.9452-.391.4078-.692.8925-.885 1.4232-.193.5308-.273 1.0959-.235 1.6593v8.6753c-.036.5651.047 1.1314.242 1.6628.195.5315.5 1.0163.893 1.4235s.867.7278 1.392.9414c.524.2136 1.087.3154 1.653.299h14.073v-4.7374h-12.093c-.153.0304-.31.0264-.462-.0115-.151-.0379-.292-.1088-.412-.2076-.121-.0989-.218-.2232-.285-.3641s-.102-.2948-.102-.4508v-5.786c.001-.1582.036-.3144.104-.4575.067-.1432.165-.2698.286-.3711.122-.1013.264-.1748.417-.2154.153-.0405.313-.0471.469-.0193h6.277c.156-.0265.315-.019.468.0221.152.041.294.1146.415.2157.122.101.219.2271.287.3696.068.1426.104.2981.106.4559zm-61.211-6.2553h-10.67c-4.136 0-3.762 3.102-3.762 3.102v10.164s.066 3.168 3.828 3.168h9.203v2.2807c.014.168-.01.3369-.068.4951-.058.1581-.15.3018-.27.421-.119.1192-.262.2111-.421.2694-.158.0584-.327.0817-.495.0685h-6.805v-.8067h-4.9793v2.1413s-.264 3.1167 3.7913 3.1167h10.648c4.136 0 3.762-3.0947 3.762-3.0947v-18.2306s.367-3.0947-3.762-3.0947zm-8.067 12.1367c-.166.0173-.334-.0002-.493-.0514-.159-.0513-.306-.1351-.431-.2462s-.225-.247-.294-.3991c-.07-.152-.107-.3169-.109-.484v-6.71h6.769c.167-.012.336.0122.493.071.158.0588.301.1508.42.2697s.211.262.27.4196c.058.1576.083.3259.071.4937v6.6h-6.725zm38.141-20.2327v-11.484h-11.601c-5.134 0-5.31 5.28-5.31 5.28v11.4547h11.565c5.925 0 5.346-5.2507 5.346-5.2507zm39.49 8.58c-.161-.0638-.328-.1129-.499-.1467-.161-.0215-.316-.0764-.454-.1613l-.088-.198.124-.242c.118-.0742.257-.1077.396-.0953.141-.0098.281.029.396.11.046.0406.084.0901.11.1455.027.0555.042.1157.044.1771h.286l-.11-.3593-.293-.242c-.142-.0565-.294-.084-.447-.0807-.141.0002-.281.0276-.411.0807l-.286.2273-.095.3227.08.2787.242.2126c.138.0658.283.1151.433.1467l.403.11.169.1027.066.1833-.066.198-.191.1393-.3.0514-.345-.066-.227-.176-.081-.2494h-.279c.001.1438.045.284.125.4034l.323.2713c.163.0624.338.0923.513.088.149.0013.296-.0287.433-.088l.3-.2493.103-.3374-.095-.3226zm2.53-1.0707-.543 1.54c-.058.1614-.095.2787-.117.3594l-.11-.3374-.535-1.5986h-.448v2.31h.294v-1.936l.645 1.936h.271l.66-1.892v1.892h.286v-2.2734z" fill="#1f304c"/></g></svg>

<svg width="184" height="44" viewBox="0 0 184 44" fill="none" xmlns="http://www.w3.org/2000/svg">
<g clip-path="url(#clip0)">
<path d="M91.124 19.5433H75.724V36.366H81.136V23.8993H88.4693C88.6135 23.8728 88.7619 23.8806 88.9025 23.9222C89.0431 23.9638 89.1718 24.038 89.2783 24.1388C89.3848 24.2395 89.466 24.364 89.5153 24.5021C89.5646 24.6402 89.5806 24.7879 89.562 24.9333V36.366H95.0033V23.5913C95.0107 19.1547 91.124 19.5433 91.124 19.5433ZM5.42667 30.5507V16.7347H0V33.2567C0 33.2567 0.0660001 36.3587 4.01867 36.3587H8.00067V31.7093H6.6C6.44104 31.7371 6.27773 31.7265 6.1237 31.6784C5.96968 31.6302 5.8294 31.5459 5.71457 31.4325C5.59974 31.3192 5.5137 31.1799 5.46362 31.0265C5.41354 30.8731 5.40087 30.71 5.42667 30.5507ZM62.2453 19.3087H52.712C49.4047 19.3087 49.61 21.802 49.61 21.802V32.2667C49.5672 32.8009 49.638 33.3381 49.8176 33.843C49.9972 34.3479 50.2817 34.8091 50.6522 35.1963C51.0228 35.5835 51.4711 35.8879 51.9676 36.0895C52.4642 36.2911 52.9978 36.3853 53.5333 36.366H67.4667V16.7787H62.2453V19.3013V19.3087ZM62.2453 31.9513H56.3127C55.9774 31.9632 55.651 31.8418 55.405 31.6137C55.159 31.3855 55.0134 31.0692 55 30.734V23.6207H60.8667C61.1933 23.6105 61.5121 23.7219 61.7613 23.9332C62.0106 24.1445 62.1726 24.4408 62.216 24.7647V31.9513H62.2453ZM68.9847 19.448H74.1913V36.3587H68.9847V19.448ZM44.176 19.5433H28.7173V36.41H34.144V23.9433H41.5213C41.6655 23.9168 41.8139 23.9246 41.9545 23.9662C42.0951 24.0078 42.2238 24.082 42.3303 24.1828C42.4368 24.2835 42.518 24.408 42.5673 24.5461C42.6166 24.6842 42.6326 24.8319 42.614 24.9773V36.3953H48.0627V23.5987C48.07 19.1547 44.176 19.5433 44.176 19.5433ZM22.6307 26.2313H15.18V29.7587H23.562C27.61 29.7587 27.3973 26.7887 27.3973 26.7887V23.7307C27.3973 19.4333 23.298 19.5213 23.298 19.5213H13.288C12.738 19.5068 12.191 19.6073 11.682 19.8163C11.1731 20.0254 10.7134 20.3384 10.3323 20.7353C9.95131 21.1322 9.65733 21.6043 9.46923 22.1213C9.28114 22.6384 9.20306 23.189 9.24 23.738V32.1787C9.20506 32.7296 9.2855 33.2818 9.47617 33.8C9.66685 34.3181 9.96356 34.7907 10.3473 35.1876C10.7311 35.5844 11.1935 35.8969 11.7049 36.1048C12.2163 36.3128 12.7655 36.4118 13.3173 36.3953H27.016V31.812H15.2827C15.1321 31.8436 14.9764 31.8413 14.8269 31.8051C14.6773 31.7689 14.5378 31.6999 14.4183 31.6029C14.2989 31.5059 14.2026 31.3835 14.1364 31.2446C14.0703 31.1057 14.036 30.9538 14.036 30.8V25.1387C14.0379 24.9846 14.0733 24.8329 14.1397 24.6939C14.2061 24.5549 14.3019 24.4319 14.4204 24.3336C14.539 24.2353 14.6775 24.1639 14.8264 24.1243C14.9752 24.0848 15.1309 24.0781 15.2827 24.1047H21.3987C21.5499 24.0793 21.7047 24.0869 21.8527 24.127C22.0007 24.167 22.1383 24.2386 22.256 24.3368C22.3737 24.435 22.4688 24.5576 22.5347 24.696C22.6007 24.8344 22.6359 24.9854 22.638 25.1387V26.2313H22.6307ZM121.807 31.064V23.43H124.828V18.942H121.682V16.654H116.013V31.9953C116.013 35.9113 120.179 36.322 120.179 36.322H124.872V31.7093H122.797C122.689 31.735 122.577 31.7386 122.468 31.7197C122.36 31.7008 122.256 31.6599 122.163 31.5996C122.07 31.5392 121.991 31.4605 121.93 31.3685C121.868 31.2764 121.827 31.1728 121.807 31.064ZM125.935 22.1833V36.3293H131.443V25.014C131.415 24.8585 131.424 24.6989 131.468 24.5472C131.512 24.3956 131.59 24.256 131.696 24.1392C131.802 24.0224 131.934 23.9315 132.08 23.8734C132.227 23.8153 132.385 23.7915 132.543 23.804H137.419V18.9273H130.027C129.062 18.8638 128.109 19.1622 127.352 19.7642C126.595 20.3663 126.09 21.2288 125.935 22.1833ZM152.269 25.8353H144.606V29.458H153.223C157.373 29.458 157.168 26.4073 157.168 26.4073V23.2613C157.168 18.8613 152.959 18.9347 152.959 18.9347H142.692C142.127 18.9201 141.565 19.0237 141.042 19.2387C140.519 19.4537 140.047 19.7755 139.656 20.1834C139.264 20.5913 138.963 21.0764 138.769 21.6077C138.576 22.1389 138.496 22.7047 138.534 23.2687V31.944C138.534 36.344 142.721 36.2707 142.721 36.2707H156.794V31.5333H144.694C143.374 31.5333 143.433 30.4993 143.433 30.4993V24.7133C143.434 24.5558 143.469 24.4004 143.536 24.2579C143.603 24.1153 143.7 23.9891 143.821 23.8879C143.942 23.7868 144.083 23.7131 144.235 23.672C144.387 23.6309 144.546 23.6234 144.701 23.65H150.986C151.142 23.6235 151.301 23.631 151.454 23.6721C151.606 23.7131 151.748 23.7867 151.869 23.8878C151.99 23.9888 152.088 24.1149 152.156 24.2574C152.224 24.4 152.26 24.5555 152.262 24.7133V25.8353H152.269ZM172.047 25.8353H164.391V29.458H173.008C177.166 29.458 176.946 26.4073 176.946 26.4073V23.2613C176.946 18.8613 172.737 18.9347 172.737 18.9347H162.47C161.906 18.9212 161.344 19.0255 160.822 19.241C160.301 19.4564 159.829 19.7784 159.439 20.1862C159.048 20.594 158.747 21.0787 158.554 21.6094C158.361 22.1402 158.281 22.7053 158.319 23.2687V31.944C158.283 32.5091 158.366 33.0754 158.561 33.6068C158.756 34.1383 159.061 34.6231 159.454 35.0303C159.847 35.4375 160.321 35.7581 160.846 35.9717C161.37 36.1853 161.933 36.2871 162.499 36.2707H176.572V31.5333H164.479C164.326 31.5637 164.169 31.5597 164.017 31.5218C163.866 31.4839 163.725 31.413 163.605 31.3142C163.484 31.2153 163.387 31.091 163.32 30.9501C163.253 30.8092 163.218 30.6553 163.218 30.4993V24.7133C163.219 24.5551 163.254 24.3989 163.322 24.2558C163.389 24.1126 163.487 23.986 163.608 23.8847C163.73 23.7834 163.872 23.7099 164.025 23.6693C164.178 23.6288 164.338 23.6222 164.494 23.65H170.771C170.927 23.6235 171.086 23.631 171.239 23.6721C171.391 23.7131 171.533 23.7867 171.654 23.8878C171.776 23.9888 171.873 24.1149 171.941 24.2574C172.009 24.4 172.045 24.5555 172.047 24.7133V25.8353ZM110.836 19.58H100.166C96.03 19.58 96.404 22.682 96.404 22.682V32.846C96.404 32.846 96.47 36.014 100.232 36.014H109.435V38.2947C109.449 38.4627 109.425 38.6316 109.367 38.7898C109.309 38.9479 109.217 39.0916 109.097 39.2108C108.978 39.33 108.835 39.4219 108.676 39.4802C108.518 39.5386 108.349 39.5619 108.181 39.5487H101.376V38.742H96.3967V40.8833C96.3967 40.8833 96.1327 44 100.188 44H110.836C114.972 44 114.598 40.9053 114.598 40.9053V22.6747C114.598 22.6747 114.965 19.58 110.836 19.58ZM102.769 31.7167C102.603 31.734 102.435 31.7165 102.276 31.6653C102.117 31.614 101.97 31.5302 101.845 31.4191C101.72 31.308 101.62 31.1721 101.551 31.02C101.481 30.868 101.444 30.7031 101.442 30.536V23.826H108.211C108.378 23.814 108.547 23.8382 108.704 23.897C108.862 23.9558 109.005 24.0478 109.124 24.1667C109.243 24.2856 109.335 24.4287 109.394 24.5863C109.452 24.7439 109.477 24.9122 109.465 25.08V31.68H102.74L102.769 31.7167ZM140.91 11.484V0H129.309C124.175 0 123.999 5.28 123.999 5.28V16.7347H135.564C141.489 16.7347 140.91 11.484 140.91 11.484ZM180.4 20.064C180.239 20.0002 180.072 19.9511 179.901 19.9173C179.74 19.8958 179.585 19.8409 179.447 19.756L179.359 19.558L179.483 19.316C179.601 19.2418 179.74 19.2083 179.879 19.2207C180.02 19.2109 180.16 19.2497 180.275 19.3307C180.321 19.3713 180.359 19.4208 180.385 19.4762C180.412 19.5317 180.427 19.5919 180.429 19.6533H180.715L180.605 19.294L180.312 19.052C180.17 18.9955 180.018 18.968 179.865 18.9713C179.724 18.9715 179.584 18.9989 179.454 19.052L179.168 19.2793L179.073 19.602L179.153 19.8807L179.395 20.0933C179.533 20.1591 179.678 20.2084 179.828 20.24L180.231 20.35L180.4 20.4527L180.466 20.636L180.4 20.834L180.209 20.9733L179.909 21.0247L179.564 20.9587L179.337 20.7827L179.256 20.5333H178.977C178.978 20.6771 179.022 20.8173 179.102 20.9367L179.425 21.208C179.588 21.2704 179.763 21.3003 179.938 21.296C180.087 21.2973 180.234 21.2673 180.371 21.208L180.671 20.9587L180.774 20.6213L180.679 20.2987L180.4 20.064ZM182.93 18.9933L182.387 20.5333C182.329 20.6947 182.292 20.812 182.27 20.8927L182.16 20.5553L181.625 18.9567H181.177V21.2667H181.471V19.3307L182.116 21.2667H182.387L183.047 19.3747V21.2667H183.333V18.9933H182.93Z" fill="#1F304C"/>
</g>
<defs>
<clipPath id="clip0">
<rect width="183.333" height="44" fill="white"/>
</clipPath>
</defs>
</svg>
